X: 210
T:Walls of Liscarrol, The
M:6/8
R:jig
D:Frankie Gavin: Frankie Goes to Town
Z:Henrik Norbeck
K:Dmix
EFF DGG|DEF E2D|DEF GFG|AFD D2E|~F3 GFG|AGA fed|ecA GFE|1 FDD D2E:|2 FDD
DAB||~c3 ~d3|ecA AGE|~c3 dcA|AGF GAB|~c3 ~d3|efd eag|edc ABc|1 BAG A2B:|
2 BAG
AB^c||~d3 AFA|GAG FED|d^cd AFA|GFE DFA|~d3 AFA|DFA fed|ecA GFE|FDD DFA:|
dFF AFF|dFF AFA|FGE cEE|GFE GFE|d2F AFA|DFA fed|ecA GFE|1 FDD DFA:|2 FDD
D2E||
<end>
<start>
